src/assets/img/icons/duotone-icons/Devices/Gameboy.svg

<?xml version="1.0" encoding="UTF-8"?>
<svg width="24px" height="24px" viewBox="0 0 24 24" version="1.1" xmlns="http://www.w3.org/2000/svg" xmlns:xlink="http://www.w3.org/1999/xlink">
    <!-- Generator: Sketch 52.2 (67145) - http://www.bohemiancoding.com/sketch -->
    <title>Stockholm-icons / Devices / Gameboy</title>
    <desc>Created with Sketch.</desc>
    <g id="Stockholm-icons-/-Devices-/-Gameboy" stroke="none" stroke-width="1" fill="none" fill-rule="evenodd">
        <rect id="bound" x="0" y="0" width="24" height="24"></rect>
        <path d="M11,16 L11,10 C11,9.44771525 11.4477153,9 12,9 C12.5522847,9 13,9.44771525 13,10 L13,16 L19,16 C20.1045695,16 21,16.8954305 21,18 L21,19 C21,20.1045695 20.1045695,21 19,21 L5,21 C3.8954305,21 3,20.1045695 3,19 L3,18 C3,16.8954305 3.8954305,16 5,16 L11,16 Z" id="Combined-Shape" fill="#335EEA" opacity="0.3"></path>
        <circle id="Oval" fill="#335EEA" cx="12" cy="7" r="3"></circle>
    </g>
</svg>

<svg width="24" height="24" viewBox="0 0 24 24" xmlns="http://www.w3.org/2000/svg"><g fill="none" fill-rule="evenodd"><path d="M0 0h24v24H0z"/><path d="M11 16v-6a1 1 0 012 0v6h6a2 2 0 012 2v1a2 2 0 01-2 2H5a2 2 0 01-2-2v-1a2 2 0 012-2h6z" fill="#335EEA" opacity=".3"/><circle fill="#335EEA" cx="12" cy="7" r="3"/></g></svg>
